svgs/sharp-regular/up-down.svg

<svg xmlns="http://www.w3.org/2000/svg" viewBox="0 0 256 512"><!--! Font Awesome Pro 6.6.0 by @fontawesome - https://fontawesome.com License - https://fontawesome.com/license (Commercial License) Copyright 2024 Fonticons, Inc. --><path d="M200 224l0-48 8 0 40 0 8 0 0-48L161.9 33.9 128 0 94.1 33.9 0 128l0 48 8 0 40 0 8 0 0 48 0 64 0 48-8 0L8 336l-8 0 0 48 94.1 94.1L128 512l33.9-33.9L256 384l0-48-8 0-40 0-8 0 0-48 0-64zM188.1 384L128 444.1 67.9 384l36.1 0 0-48 0-160 0-48-36.1 0L128 67.9 188.1 128 152 128l0 48 0 160 0 48 36.1 0z"/></svg>

<svg xmlns="http://www.w3.org/2000/svg" viewBox="0 0 256 512"><!--! Font Awesome Pro 6.5.2 by @fontawesome - https://fontawesome.com License - https://fontawesome.com/license (Commercial License) Copyright 2024 Fonticons, Inc. --><path d="M200 224V176h8 40 8V128L161.9 33.9 128 0 94.1 33.9 0 128v48H8 48h8v48 64 48H48 8 0v48l94.1 94.1L128 512l33.9-33.9L256 384V336h-8H208h-8V288 224zM188.1 384L128 444.1 67.9 384H104V336 176 128H67.9L128 67.9 188.1 128H152v48V336v48h36.1z"/></svg>
